X: 8516
T: Creel Of Turf, The
R: jig
M: 6/8
K: Edorian
D|:EBB {c}BAG|FAd AGD|EBB {c}BAG|FAd AGF|
EBB {c}BAG|FAd AFD|EBB Bcd|1 AGF E2D:|2 AGF E3||
|:Bee efg|fed edc|Bee efg|~a2f gfe|
Bee efg|fed edB|GBB Bcd|1 AGF E2A:|2 AGF E2D||

